src/images/socialIcons/apple_icon.svg

<svg width="16" height="19" viewBox="0 0 16 19" fill="none" xmlns="http://www.w3.org/2000/svg">
<path d="M8.38664 1.65343C9.6117 0.00802164 11.3148 0 11.3148 0C11.3148 0 11.5681 1.54696 10.3511 3.03718C9.05164 4.6284 7.57459 4.36802 7.57459 4.36802C7.57459 4.36802 7.29725 3.11658 8.38664 1.65343ZM7.73041 5.45166C8.36064 5.45166 9.53031 4.56884 11.0528 4.56884C13.6735 4.56884 14.7045 6.46916 14.7045 6.46916C14.7045 6.46916 12.6881 7.51975 12.6881 10.0689C12.6881 12.9447 15.2 13.9357 15.2 13.9357C15.2 13.9357 13.4441 18.9721 11.0723 18.9721C9.98299 18.9721 9.13608 18.224 7.98831 18.224C6.81863 18.224 5.6579 19 4.9019 19C2.73613 19.0001 0 14.2225 0 10.3822C0 6.60384 2.31595 4.62178 4.48822 4.62178C5.90039 4.62178 6.99625 5.45166 7.73041 5.45166Z" fill="#EBEBF5"/>
</svg>

<svg width="16" height="19" fill="none" xmlns="http://www.w3.org/2000/svg"><path d="M8.387 1.653C9.612.008 11.315 0 11.315 0s.253 1.547-.964 3.037c-1.3 1.591-2.776 1.331-2.776 1.331s-.278-1.251.812-2.715zM7.73 5.452c.63 0 1.8-.883 3.323-.883 2.62 0 3.651 1.9 3.651 1.9s-2.016 1.05-2.016 3.6c0 2.876 2.512 3.867 2.512 3.867s-1.756 5.036-4.128 5.036c-1.089 0-1.936-.748-3.084-.748-1.17 0-2.33.776-3.086.776C2.736 19 0 14.223 0 10.382c0-3.778 2.316-5.76 4.488-5.76 1.412 0 2.508.83 3.242.83z" fill="#EBEBF5"/></svg>
